Gruvbox-Plus-Dark/actions/22/semi-starred.svg

<svg xmlns="http://www.w3.org/2000/svg" width="22" height="22" version="1.1" viewBox="0 0 22 22">
 <defs>
  <style id="current-color-scheme" type="text/css">
   .ColorScheme-Text { color:#ebdbb2; } .ColorScheme-Highlight { color:#458588; }
  </style>
 </defs>
 <path style="fill:currentColor" class="ColorScheme-Text" d="M 11,3.3916015 V 15.407227 L 15.943359,18.608398 14.427734,12.916992 19,9.2021484 13.119141,8.8857421 Z"/>
 <path style="opacity:0.3;fill:currentColor" class="ColorScheme-Text" d="M 11,3.3916015 8.8808594,8.8857421 3,9.2021484 7.5722656,12.916992 6.0566406,18.608398 11,15.407227 Z"/>
</svg>

<svg width="22" height="22" version="1.1" viewBox="0 0 22 22" xmlns="http://www.w3.org/2000/svg">
  <defs>
    <style type="text/css">.ColorScheme-Text { color:#ebdbb2; } .ColorScheme-Highlight { color:#458588; }</style>
  </defs>
  <path class="ColorScheme-Text" d="m11 3.392v12.02l4.943 3.201-1.516-5.691 4.572-3.715-5.881-0.3164-2.119-5.494z" fill="currentColor"/>
  <path class="ColorScheme-Text" d="m11 3.392-2.119 5.494-5.881 0.3164 4.572 3.715-1.516 5.691 4.943-3.201v-12.02z" fill="currentColor" opacity=".3"/>
</svg>
